X:1
T:The Wraggle Taggle Gipsies-O!
B:One Hundred English Folksongs, Ed C Sharp, ISBN 0-486-23192-5
Z:Cecil Sharp
F:http://www.folkinfo.org/songs
M:4/4     %Meter
L:1/8     %
K:Dm
(AG) |F2 D2 D2 AG |F2 EE D2 A2 |d2 d2 d2 ed |c2 A2 A3 z |
w:There_ were three gip-sies a-come to my door, And down-stairs ran this a-la-dy O!
c2 c2 d2 AB |cB A2 G2 DD |FF G2 cB AG | A2 D2 D2  |]
w: One sang high and an-oth-er sang low And the oth-er sang bon-ny, bon-ny Bis-cay, O! 